lib/svgs/sharp.svg

<?xml version="1.0" encoding="UTF-8"?>
<svg width="16px" height="16px" viewBox="0 0 16 16" version="1.1" xmlns="http://www.w3.org/2000/svg" xmlns:xlink="http://www.w3.org/1999/xlink">
    <!-- Generator: sketchtool 51.3 (57544) - http://www.bohemiancoding.com/sketch -->
    <title>app/sharp</title>
    <desc>Created with sketchtool.</desc>
    <defs></defs>
    <g id="Icons" stroke="none" stroke-width="1" fill="none" fill-rule="evenodd">
        <g id="Web" transform="translate(-483.000000, -456.000000)" fill="#000000">
            <g id="app/sharp" transform="translate(483.000000, 456.000000)">
                <path d="M15.4,4.35387712 L11.755,4.35387712 L12.035,0.645877121 C12.06,0.315877121 11.812,0.0278771211 11.481,0.00287712112 C11.154,-0.0301228789 10.863,0.224877121 10.838,0.555877121 L10.552,4.35387712 L5.999,4.35387712 L6.279,0.645877121 C6.304,0.315877121 6.057,0.0278771211 5.726,0.00287712112 C5.399,-0.0301228789 5.107,0.224877121 5.083,0.555877121 L4.796,4.35387712 L1.216,4.35387712 C0.884,4.35387712 0.616,4.62287712 0.616,4.95387712 C0.616,5.28587712 0.884,5.55387712 1.216,5.55387712 L4.706,5.55387712 L4.337,10.4478771 L0.601,10.4478771 C0.269,10.4478771 0,10.7168771 0,11.0478771 C0,11.3788771 0.269,11.6478771 0.601,11.6478771 L4.246,11.6478771 L3.966,15.3568771 C3.941,15.6868771 4.189,15.9748771 4.519,15.9998771 C4.535,16.0008771 4.55,16.0008771 4.565,16.0008771 C4.876,16.0008771 5.139,15.7618771 5.163,15.4468771 L5.449,11.6478771 L10.001,11.6478771 L9.722,15.3568771 C9.697,15.6868771 9.944,15.9748771 10.275,15.9998771 C10.29,16.0008771 10.305,16.0008771 10.32,16.0008771 C10.631,16.0008771 10.894,15.7618771 10.918,15.4468771 L11.205,11.6478771 L14.785,11.6478771 C15.116,11.6478771 15.385,11.3788771 15.385,11.0478771 C15.385,10.7168771 15.116,10.4478771 14.785,10.4478771 L11.295,10.4478771 L11.664,5.55387712 L15.4,5.55387712 C15.732,5.55387712 16,5.28587712 16,4.95387712 C16,4.62287712 15.732,4.35387712 15.4,4.35387712 M10.092,10.4478771 L5.54,10.4478771 L5.909,5.55387712 L10.461,5.55387712 L10.092,10.4478771" id="Shape"></path>
            </g>
        </g>
    </g>
</svg>

<svg xmlns="http://www.w3.org/2000/svg" viewBox="0 0 16 16">
    <path d="M15.4 4.354h-3.645l.28-3.708a.6.6 0 0 0-.554-.643.596.596 0 0 0-.643.553l-.286 3.798H5.999l.28-3.708a.6.6 0 0 0-.553-.643.595.595 0 0 0-.643.553l-.287 3.798h-3.58a.6.6 0 1 0 0 1.2h3.49l-.369 4.894H.601a.6.6 0 1 0 0 1.2h3.645l-.28 3.709a.6.6 0 0 0 .553.643h.046a.6.6 0 0 0 .598-.553l.286-3.8h4.552l-.279 3.71a.6.6 0 0 0 .553.643h.045a.6.6 0 0 0 .598-.553l.287-3.8h3.58a.6.6 0 0 0 0-1.2h-3.49l.369-4.893H15.4a.6.6 0 1 0 0-1.2m-5.308 6.094H5.54l.369-4.894h4.552l-.369 4.894"/>
</svg>
